X: 40119
T: Tie The Bonnet
R: reel
M: 4/4
K: Amixolydian
|:(3AAA Ag fdec|A2 A=c BG(3GGG|AGAg fdef|1 ~g3d BGGB:|2 ~g3d BG(3GGG||
|:faaf gfed|(3cBA eA fAeA|faaf gfef|1 ~g3d BG(3GGG:|2 ~g3d BGGB||

